24x24/apps/convertall-icon.svg

<svg xmlns="http://www.w3.org/2000/svg" width="24" height="24" version="1">
 <rect style="opacity:0.2" width="20" height="20" x="2" y="2.5" rx="1" ry="1"/>
 <path style="fill:#f3389a" d="M 3.0000004,1.9999999 H 12 V 21.999999 H 3.0000004 c -0.554,0 -1,-0.446 -1,-1 V 2.9999999 c 0,-0.554 0.446,-1 1,-1 z"/>
 <path style="fill:#5a50e3" d="M 20.999999,1.9999999 H 12 V 21.999999 h 8.999999 c 0.554,0 1,-0.446 1,-1 V 2.9999999 c 0,-0.554 -0.446,-1 -1,-1 z"/>
 <path style="opacity:0.1" d="M 5.8046875,5.6191406 A 0.47701065,0.47701065 0 0 0 5.5253906,6.4589844 L 2.5214844,15.5 H 2.5058594 A 3.2499999,2.8916716 0 0 0 2.5,15.607422 3.2499999,2.8916716 0 0 0 5.75,18.5 3.2499999,2.8916716 0 0 0 9,15.607422 3.2499999,2.8916716 0 0 0 8.9960938,15.5 H 8.9804688 L 6.1933594,6.6699219 18.029297,9.4511719 15.021484,18.5 h -0.01563 A 3.2499999,2.8916716 0 0 0 15,18.607422 3.2499999,2.8916716 0 0 0 18.25,21.5 3.2499999,2.8916716 0 0 0 21.5,18.607422 3.2499999,2.8916716 0 0 0 21.496094,18.5 h -0.01563 L 18.660156,9.5605469 a 0.47753806,0.47753806 0 0 0 0.002,0 A 0.47753806,0.47753806 0 0 0 18.691406,8.625 L 5.9472656,5.6328125 A 0.47701065,0.47701065 0 0 0 5.8046875,5.6191406 Z M 5.8222656,7.1523438 8.4570312,15.5 H 3.046875 Z M 18.322266,10.152344 20.957031,18.5 h -5.410156 z"/>
 <path style="fill:#17191e" d="m 15.005859,17.999995 a 3.2499999,2.8916716 0 0 0 -0.0059,0.107808 3.2499999,2.8916716 0 0 0 3.25,2.892192 3.2499999,2.8916716 0 0 0 3.25,-2.892192 3.2499999,2.8916716 0 0 0 -0.0039,-0.107808 z"/>
 <path style="fill:none;stroke:#17191e;stroke-width:0.5;stroke-linejoin:bevel" d="M 15.249999,18.1 18.328732,8.8413651 21.249999,18.1"/>
 <path style="fill:#17191e" d="m 2.5058593,14.999995 a 3.2499999,2.8916716 0 0 0 -0.00586,0.107808 3.2499999,2.8916716 0 0 0 3.2499999,2.892192 3.2499999,2.8916716 0 0 0 3.2499998,-2.892192 3.2499999,2.8916716 0 0 0 -0.00391,-0.107808 z"/>
 <path style="opacity:0.2" d="m 5.7695312,14.499959 -1.8691406,0.994141 3.7109375,0.0059 z m 12.4999998,1.5 -2.070312,2.494141 4.111328,0.0059 z"/>
 <path style="fill:#fffb00" d="m 20.310999,18 -4.111,-0.0052 2.069927,-2.494817 z"/>
 <path style="opacity:0.1;fill:#f4f4f7" d="m 2.9999994,1.9999999 c -0.554,0 -1,0.446 -1,1 v 0.5 c 0,-0.554 0.446,-1 1,-1 H 20.999999 c 0.554,0 1,0.446 1,1 v -0.5 c 0,-0.554 -0.446,-1 -1,-1 z"/>
 <path style="fill:none;stroke:#17191e;stroke-width:0.95;stroke-linecap:round" d="M 5.8377823,5.5964803 C 18.581865,8.5901437 18.581865,8.5901437 18.581865,8.5901437"/>
 <path style="fill:none;stroke:#17191e;stroke-width:0.5;stroke-linejoin:bevel" d="M 2.7499999,15.1 5.8287323,5.8413653 8.7499997,15.1"/>
 <path style="fill:#fffb00" transform="matrix(0.06712005,0,0,0.02083051,-2.4137984,-0.86637982)" d="m 149.35752,761.68946 -55.29027,-0.24747 27.85944,-47.75904 z"/>
 <rect style="fill:#17191e" width="2" height="20" x="11" y="2"/>
 <path style="fill:#f4f4f7;opacity:0.2" d="M 5.7695312 14 L 3.9003906 14.994141 L 4.8378906 14.996094 L 5.7695312 14.5 L 6.6875 14.998047 L 7.6113281 15 L 5.7695312 14 z M 18.269531 15.5 L 16.199219 17.994141 L 16.613281 17.994141 L 18.269531 16 L 19.902344 18 L 20.310547 18 L 18.269531 15.5 z"/>
</svg>

<svg xmlns="http://www.w3.org/2000/svg" width="24" height="24" version="1"><rect style="opacity:.2" width="20" height="20" x="2" y="2.5" rx="1" ry="1"/><path style="fill:#f3389a" d="M3 2h9v20H3c-.554 0-1-.446-1-1V3c0-.554.446-1 1-1z"/><path style="fill:#5a50e3" d="M21 2h-9v20h9c.554 0 1-.446 1-1V3c0-.554-.446-1-1-1z"/><path style="opacity:.1" d="M5.805 5.62a.477.477 0 0 0-.28.839L2.521 15.5h-.015a3.25 2.892 0 0 0-.006.107A3.25 2.892 0 0 0 5.75 18.5 3.25 2.892 0 0 0 9 15.607a3.25 2.892 0 0 0-.004-.107H8.98L6.193 6.67 18.03 9.45 15.021 18.5h-.015a3.25 2.892 0 0 0-.006.107 3.25 2.892 0 0 0 3.25 2.893 3.25 2.892 0 0 0 3.25-2.893 3.25 2.892 0 0 0-.004-.107h-.016l-2.82-8.94a.478.478 0 0 0 .002 0 .478.478 0 0 0 .03-.935L5.946 5.633a.477.477 0 0 0-.142-.014zm.017 1.532L8.457 15.5h-5.41zm12.5 3 2.635 8.348h-5.41z"/><path style="fill:#17191e" d="M15.006 18a3.25 2.892 0 0 0-.006.108A3.25 2.892 0 0 0 18.25 21a3.25 2.892 0 0 0 3.25-2.892 3.25 2.892 0 0 0-.004-.108z"/><path style="fill:none;stroke:#17191e;stroke-width:.5;stroke-linejoin:bevel" d="m15.25 18.1 3.079-9.259L21.25 18.1"/><path style="fill:#17191e" d="M2.506 15a3.25 2.892 0 0 0-.006.108A3.25 2.892 0 0 0 5.75 18 3.25 2.892 0 0 0 9 15.108 3.25 2.892 0 0 0 8.996 15z"/><path style="opacity:.2" d="m5.77 14.5-1.87.994 3.711.006zm12.5 1.5-2.07 2.494 4.11.006z"/><path style="fill:#fffb00" d="m20.311 18-4.111-.005 2.07-2.495z"/><path style="opacity:.1;fill:#f4f4f7" d="M3 2c-.554 0-1 .446-1 1v.5c0-.554.446-1 1-1h18c.554 0 1 .446 1 1V3c0-.554-.446-1-1-1z"/><path style="fill:none;stroke:#17191e;stroke-width:.95;stroke-linecap:round" d="M5.838 5.596 18.582 8.59"/><path style="fill:none;stroke:#17191e;stroke-width:.5;stroke-linejoin:bevel" d="m2.75 15.1 3.079-9.259L8.75 15.1"/><path style="fill:#fffb00" transform="matrix(.06712 0 0 .02083 -2.414 -.866)" d="m149.358 761.69-55.29-.248 27.859-47.759z"/><path style="fill:#17191e" d="M11 2h2v20h-2z"/><path style="fill:#f4f4f7;opacity:.2" d="m5.77 14-1.87.994.938.002.932-.496.918.498.923.002-1.841-1zm12.5 1.5-2.07 2.494h.413L18.27 16l1.632 2h.409l-2.041-2.5z"/></svg>
